X: 12211
T: Fahey's Bouncy Boat
R: reel
M: 4/4
K: Edorian
|:EB ~B2 EB ~B2|EB ~B2 dc=cB|EB ~B2 EB ~B2|EB ~B2 AGFD|
EB ~B2 EB ~B2|EB ~B2 dc=cB|EB ~B2 EB ~B2|EB ~B2 AGFD:|
|:E3 F GFGA|B2 ed dBAG|A2 GA AGEG|A2 GA A2 B2|
E3 F GFGA|B2 ed dBAG|A2 GA AGAA|GAFD E2 z2:|

